X:215
T:Jim Neary's
R:jig
H:See also #393
D:Light Through the Leaves
Z:id:hn-jig-215
M:6/8
K:Dmix
dcA ~G3|~A3 d2d|dcA ~G3|GED ~E3|
dcA ~G3|~A3 d^cd|efd ~e2d|cAG ~A3:|
|:~e3 efg|~e3 d2d|efg ~a3|age d{f}ed|
efg a2g|efe def|~f2e ~e2d|BAG ~A3:|

